img/logo.svg

<svg width="29" height="35" fill="none" xmlns="http://www.w3.org/2000/svg"><path d="M26.312 10.844h-1.76l-1.672.44H11.572v-3.74c0-3.388.968-5.104 2.948-5.104 1.848 0 2.332 1.584 2.332 3.168 0 .748-.088 1.408-.176 2.024h4.62c1.012-.484 1.672-1.496 1.672-2.772 0-2.728-2.728-4.312-7.964-4.312-6.292 0-11.528 3.036-11.528 9.944v.572L.308 11.9v1.76h3.168v17.908c0 1.408-.704 1.584-2.464 1.716V35h12.936v-1.716c-1.76-.132-2.376-.308-2.376-1.716V13.66h6.644v17.908c0 1.408-.616 1.584-2.376 1.716V35h12.936v-1.716c-1.76-.132-2.464-.308-2.464-1.716V10.844z" fill="#fff"/></svg>

<svg width="29" height="35" viewBox="0 0 29 35" fill="none" xmlns="http://www.w3.org/2000/svg">
<path d="M26.312 10.844H24.552L22.88 11.284H11.572V7.544C11.572 4.156 12.54 2.44 14.52 2.44C16.368 2.44 16.852 4.024 16.852 5.608C16.852 6.356 16.764 7.016 16.676 7.632H21.296C22.308 7.148 22.968 6.136 22.968 4.86C22.968 2.132 20.24 0.547998 15.004 0.547998C8.712 0.547998 3.476 3.584 3.476 10.492V11.064L0.308 11.9V13.66H3.476V31.568C3.476 32.976 2.772 33.152 1.012 33.284V35H13.948V33.284C12.188 33.152 11.572 32.976 11.572 31.568V13.66H18.216V31.568C18.216 32.976 17.6 33.152 15.84 33.284V35H28.776V33.284C27.016 33.152 26.312 32.976 26.312 31.568V10.844Z" fill="white"/>
</svg>
